pieces/chess7/pw.svg

<svg width="68" height="68" viewBox="0 0 68 68" fill="none" xmlns="http://www.w3.org/2000/svg">
<path d="M22.992 44.752C23.888 44.3253 24.6133 43.4933 25.168 42.256C25.7653 40.8053 26.4267 39.184 27.152 37.392C27.8773 35.5573 28.6027 33.68 29.328 31.76C29.1573 31.632 28.9867 31.5253 28.816 31.44C28.688 31.3547 28.6027 31.2693 28.56 31.184C27.3653 29.8613 27.3653 28.7307 28.56 27.792L29.264 27.088L30.416 25.936C28.9227 25.2533 27.6853 24.208 26.704 22.8C25.7653 21.3493 25.296 19.7707 25.296 18.064C25.296 15.7173 26.1493 13.6693 27.856 11.92C29.6053 10.1707 31.632 9.296 33.936 9.296C36.2827 9.296 38.288 10.1707 39.952 11.92C41.6587 13.6693 42.512 15.7173 42.512 18.064C42.512 19.7707 42.0213 21.3493 41.04 22.8C40.1013 24.208 38.9067 25.2533 37.456 25.936C37.84 26.32 38.2027 26.704 38.544 27.088C38.8853 27.4293 39.1413 27.664 39.312 27.792C40.3787 28.7307 40.3787 29.8613 39.312 31.184C39.2267 31.2693 39.0987 31.3547 38.928 31.44C38.8 31.5253 38.672 31.632 38.544 31.76C39.312 33.68 40.0373 35.5573 40.72 37.392C41.4027 39.184 42.064 40.8053 42.704 42.256C43.216 43.4933 43.92 44.3253 44.816 44.752C45.7547 45.136 47.1413 45.8827 48.976 46.992C50.8107 48.0587 51.8987 49.04 52.24 49.936C52.5387 50.7893 52.7307 52.0267 52.816 53.648C52.944 55.2693 53.0507 56.9547 53.136 58.704H14.864C14.864 56.9547 14.9067 55.2693 14.992 53.648C15.0773 52.0267 15.2907 50.7893 15.632 49.936C15.888 49.04 16.9547 48.0587 18.832 46.992C20.7093 45.8827 22.096 45.136 22.992 44.752Z" fill="black"/>
<path fill-rule="evenodd" clip-rule="evenodd" d="M17.945 55.138C17.945 54.12 18.349 51.135 18.535 50.788C18.845 50.203 19.123 50.033 22.425 48.402C24.912 47.175 25.698 46.695 26.311 46.029C27.229 45.034 28.458 42.495 30.326 37.741L31.663 34.336L32.122 34.758C33.49 36.014 34.1 36.071 35.328 35.056L36.205 34.331L36.427 34.92C37.673 38.22 39.229 41.991 39.96 43.485C41.265 46.148 41.79 46.617 45.49 48.419C47.19 49.248 48.768 50.126 48.996 50.371C49.426 50.833 49.621 51.728 49.849 54.281L49.967 55.599H17.945V55.138ZM32.37 30.939C31.636 30.176 31.036 29.458 31.036 29.343C31.036 29.229 31.641 28.534 32.381 27.799C33.934 26.257 33.661 26.226 35.719 28.169L36.996 29.374L35.512 30.85C34.696 31.662 33.955 32.326 33.867 32.326C33.777 32.326 33.105 31.702 32.37 30.939V30.939ZM32.146 23.204C28.416 22.047 27.256 17.326 29.946 14.262C30.953 13.116 31.968 12.639 33.608 12.544C35.367 12.442 36.382 12.779 37.541 13.848C39.6 15.745 39.959 18.821 38.398 21.179C37.695 22.242 36.638 22.951 35.175 23.34C33.957 23.664 33.572 23.647 32.146 23.204V23.204Z" fill="white"/>
</svg>

<svg height="68" width="68" xmlns="http://www.w3.org/2000/svg"><path d="m22.992 44.752q1.344-.64 2.176-2.496.896-2.176 1.984-4.864 1.088-2.752 2.176-5.632-.256-.192-.512-.32-.192-.128-.256-.256-1.792-1.984 0-3.392l.704-.704 1.152-1.152q-2.24-1.024-3.712-3.136-1.408-2.176-1.408-4.736 0-3.52 2.56-6.144 2.624-2.624 6.08-2.624 3.52 0 6.016 2.624 2.56 2.624 2.56 6.144 0 2.56-1.472 4.736-1.408 2.112-3.584 3.136.576.576 1.088 1.152.512.512.768.704 1.6 1.408 0 3.392-.128.128-.384.256-.192.128-.384.32 1.152 2.88 2.176 5.632 1.024 2.688 1.984 4.864.768 1.856 2.112 2.496 1.408.576 4.16 2.24 2.752 1.6 3.264 2.944.448 1.28.576 3.712.192 2.432.32 5.056h-38.272q0-2.624.128-5.056t.64-3.712q.384-1.344 3.2-2.944 2.816-1.664 4.16-2.24zm10.752-18.496q0 .128-1.344 1.536l-1.536 1.536q.192.384 1.472 1.728 1.344 1.28 1.6 1.472l1.472-1.472 1.728-1.728q-.384-.192-1.856-1.536zm5.696-8.32q0-2.304-1.6-3.904-1.6-1.664-3.904-1.664-2.24 0-3.904 1.728-1.664 1.664-1.664 3.968 0 2.112 1.344 3.648t3.264 1.728q.896.576 1.856 0 1.92-.192 3.264-1.728 1.344-1.536 1.344-3.776zm-21.056 32.896q-.448 1.984-.448 4.8h32q0-2.304-.448-4.8-.384-.768-2.368-1.664-1.984-.96-4.032-1.92-1.984-1.024-3.136-3.904-.96-1.92-1.92-4.288-.896-2.368-1.792-4.8-.256.128-.384.32-.128.128-.256.128-1.664 2.048-3.392 0-.128 0-.256-.128-.128-.192-.32-.32-.96 2.432-1.92 4.8-.896 2.368-1.792 4.288-1.152 2.88-3.2 3.904-2.048.96-4.032 1.92-1.984.896-2.304 1.664z"/><path d="m17.945 55.138c0-1.018.404-4.003.59-4.35.31-.585.588-.755 3.89-2.386 2.487-1.227 3.273-1.707 3.886-2.373.918-.995 2.147-3.534 4.015-8.288l1.337-3.405.459.422c1.368 1.256 1.978 1.313 3.206.298l.877-.725.222.589c1.246 3.3 2.802 7.071 3.533 8.565 1.305 2.663 1.83 3.132 5.53 4.934 1.7.829 3.278 1.707 3.506 1.952.43.462.625 1.357.853 3.91l.118 1.318h-32.022zm14.425-24.199c-.734-.763-1.334-1.481-1.334-1.596 0-.114.605-.809 1.345-1.544 1.553-1.542 1.28-1.573 3.338.37l1.277 1.205-1.484 1.476c-.816.812-1.557 1.476-1.645 1.476-.09 0-.762-.624-1.497-1.387zm-.224-7.735c-3.73-1.157-4.89-5.878-2.2-8.942 1.007-1.146 2.022-1.623 3.662-1.718 1.759-.102 2.774.235 3.933 1.304 2.059 1.897 2.418 4.973.857 7.331-.703 1.063-1.76 1.772-3.223 2.161-1.218.324-1.603.307-3.029-.136z" fill="#fff" fill-rule="evenodd"/></svg>
